symbolic/64x64/apps/claudia-launcher.svg

<svg width="64" height="64" version="1.1" xmlns="http://www.w3.org/2000/svg">
 <rect transform="matrix(0,-1,-1,0,0,0)" x="-61" y="-61" width="58" height="58" rx="2.9000001" ry="2.9000001" style="opacity:.2"/>
 <rect transform="matrix(0,-1,-1,0,0,0)" x="-60" y="-61" width="58" height="58" rx="2.9000001" ry="2.9000001" style="fill:#752828"/>
 <path d="M 5.8984375,2 C 4.2918373,2 3,3.2918373 3,4.8984375 v 1 C 3,4.2918373 4.2918373,3 5.8984375,3 H 58.101562 C 59.708163,3 61,4.2918373 61,5.8984375 v -1 C 61,3.2918373 59.708163,2 58.101562,2 Z" style="fill:#ffffff;opacity:.1"/>
 <path d="m31 30c-10.769553 0-20 4.70101-20 10.5s9.230447 10.5 20 10.5 20-4.70101 20-10.5-9.230447-10.5-20-10.5zm0 4c8.560414 0 16 2.910149 16 6.5s-7.439586 6.5-16 6.5-16-2.910149-16-6.5 7.439586-6.5 16-6.5z" style="opacity:.2"/>
 <path d="m31 29c-10.769553 0-20 4.70101-20 10.5s9.230447 10.5 20 10.5 20-4.70101 20-10.5-9.230447-10.5-20-10.5zm0 4c8.560414 0 16 2.910149 16 6.5s-7.439586 6.5-16 6.5-16-2.910149-16-6.5 7.439586-6.5 16-6.5z" style="fill:#6c7f94"/>
 <path d="m31.5 10-6.5 7h4v26h5v-26h4z" style="opacity:.2"/>
 <path d="m31.5 9-6.5 7h4v26h5v-26h4z" style="fill:#4c66cc"/>
</svg>

<svg width="64" height="64" xmlns="http://www.w3.org/2000/svg"><rect transform="matrix(0 -1 -1 0 0 0)" x="-61" y="-61" width="58" height="58" rx="2.9" ry="2.9" style="opacity:.2"/><rect transform="matrix(0 -1 -1 0 0 0)" x="-60" y="-61" width="58" height="58" rx="2.9" ry="2.9" style="fill:#752828"/><path d="M5.898 2A2.891 2.891 0 0 0 3 4.898v1A2.891 2.891 0 0 1 5.898 3h52.204A2.891 2.891 0 0 1 61 5.898v-1A2.891 2.891 0 0 0 58.102 2z" style="fill:#fff;opacity:.1"/><path d="M31 30c-10.77 0-20 4.701-20 10.5S20.23 51 31 51s20-4.701 20-10.5S41.77 30 31 30zm0 4c8.56 0 16 2.91 16 6.5S39.56 47 31 47s-16-2.91-16-6.5S22.44 34 31 34z" style="opacity:.2"/><path d="M31 29c-10.77 0-20 4.701-20 10.5S20.23 50 31 50s20-4.701 20-10.5S41.77 29 31 29zm0 4c8.56 0 16 2.91 16 6.5S39.56 46 31 46s-16-2.91-16-6.5S22.44 33 31 33z" style="fill:#6c7f94"/><path d="M31.5 10 25 17h4v26h5V17h4z" style="opacity:.2"/><path d="M31.5 9 25 16h4v26h5V16h4z" style="fill:#4c66cc"/></svg>
